material/.icons/material/valve-closed.svg

<svg xmlns="http://www.w3.org/2000/svg" viewBox="0 0 24 24"><path d="M22 2v20h-2v-9h-5.18a3 3 0 01-5.64 0H4v9H2V2h2v9h5.18a3 3 0 015.64 0H20V2z"/></svg>

<?xml version="1.0" encoding="UTF-8"?><!DOCTYPE svg PUBLIC "-//W3C//DTD SVG 1.1//EN" "http://www.w3.org/Graphics/SVG/1.1/DTD/svg11.dtd"><svg xmlns="http://www.w3.org/2000/svg" xmlns:xlink="http://www.w3.org/1999/xlink" version="1.1" id="mdi-valve-closed" width="24" height="24" viewBox="0 0 24 24"><path d="M22 2V22H20V13H14.82A3 3 0 0 1 9.18 13H4V22H2V2H4V11H9.18A3 3 0 0 1 14.82 11H20V2Z" /></svg>
